X: 1
T: An Giúdach Fánach
R: reel
M: 4/4
L: 1/8
K: Edor
|:BE3 BEFA|BABc d3e|dBAF AD3|FDFA dBed|
BE3 BEFA|BABc d3e|fd3 edBA|G/F/E FD B,EE2:|
|:edBd e3f|edBc dBAG|FA3 BAFA|dBed BAF/G/A|
[1 Be3 efed|BABc d3e|fd3 edBA|G/F/E FD B,EE2:|
[2 BE3 BEFA|BABc d3e|fd3 edBA|G/F/E FD B,EE2||

